svgs/sharp-regular/square-left.svg

<svg xmlns="http://www.w3.org/2000/svg" viewBox="0 0 448 512"><!--! Font Awesome Pro 6.6.0 by @fontawesome - https://fontawesome.com License - https://fontawesome.com/license (Commercial License) Copyright 2024 Fonticons, Inc. --><path d="M48 432l352 0 0-352L48 80l0 352zM0 480l0-48L0 80 0 32l48 0 352 0 48 0 0 48 0 352 0 48-48 0L48 480 0 480zM192 368L96 256l96-112 32 0 0 64 128 0 0 96-128 0 0 64-32 0z"/></svg>

<svg xmlns="http://www.w3.org/2000/svg" viewBox="0 0 448 512"><!--! Font Awesome Pro 6.4.2 by @fontawesome - https://fontawesome.com License - https://fontawesome.com/license (Commercial License) Copyright 2023 Fonticons, Inc. --><path d="M48 432H400V80L48 80l0 352zM0 480V432 80 32H48 400h48V80 432v48H400 48 0zM192 368L96 256l96-112h32v64H352v96H224v64H192z"/></svg>
